X:1
T: Craigenroan
C:Alexander Walker
R:Reel
Q: 232
K:C
M:4/4
L:1/8
|:B|c2 ed cA Ac|Ac Gc d3e|c2 ed cA Ac|GE cE D2 CB|
c2 ed cA Ac|Ac Gc d3e|c2 ed cA Ac|GE cE D2 CG|
c2 ec BG GB|ce dc dA AB|c2 ec de fa|gf ed cA AG|
c2 ec BG GB|ce dc dA AB|c2 ed cd ea|ge c'e d2 c:|
